X: 38294
T: St. Patrick Was A Gentleman
R: reel
M: 4/4
K: Aminor
(e>d)|(cA).A.A (EA).A.A|(BG).G.B d2 (e>d)|(cA).A.A (EA).A.A|(BG).G.B (d2 e)z/d/|
(ce).e.e (ae).e.e|(ce).e.e a2 (a>b)|(c'a)(b^g) (ae).e (d/c/)|(BG).G.B (d2 !fermata!e>).d|
(cA).A.A (EA).A.A|(BG).G.B (d2 e>)d|(cA).A.A (EA).A a|(ae).e>.d (cB) A2||

